X:1
T:Bye Bye Baby
T:Bye Bye Baby
C:Jule Styne
Z:All Rights Reserved
L:1/4
M:4/4
K:Bb
V:1 treble nm="Piano" snm="Pno."
%%MIDI program 0
V:1
"Bb/D" F B B F |"Gb7/Db" _F B B2 |"Bb/D" =F d"Gm" B G |"Cm7" F/G/"F7" F2 D |"Bb" B, G2 F/B,/ | %5
w: I'll be in my|room a- lone|ev- 'ry post mer-|i- di- an. And|I'll be with my|
"F9" A, G2 F/"D/F#"D/ |"Gm" B, B"C7" A G |"F7" E/F/"Eb""Abm7""F7" E3 ||"Bb" D2"F+9" ^C2 | %9
w: dia- ry and that|book by Mis- ter|Gid- e- on.|Bye bye,|
"Bb" D"G+7""G7" G3 |"Cm" z E"G+" E"G" D |"Cm7" E c"F+7" A G |"Bb" F2"Bbdim" =E2 |"Bb" F d2"Gm7" B | %14
w: ba- by,|re- mem- ber|you're my ba- by|when they|give you the|
"C7""C+7" c4- |"F9" c"F7" A"Eb" B"F7" c |"Bb" d2"D7" A/ c B/- |"Gm" B2 F/"Bb7" _A G/- | %18
w: eye,|_ and just to|show that I care|_ I will write|
"Eb" G2"G7" D/ F E/- |"Cm" E3 c |"F7" c2"Bbdim" G/ B A/- |"F7" A2"F+7" E/ G F/- | %22
w: _ and de- clare|_ that|I'm on the loose,|_ but I'm still|
"Bb" F2"Bbdim" G/ F E/- |"Cm7""F7" E4 |"Bb" D2"F9" ^C2 |"Bb" D"G+7""G7" G3 |"Cm" z E"G+" E"G" D | %27
w: _ on the square.|_|I'll be|gloom- y,|but send that|
"Cm7" E c"F+7" A G |"Bb" F2"Bbdim" =E2 |"Bb" F"Gm7" d2 B |"Am7" c4- |"D7" c A"Gm" B"D7" c | %32
w: rain- bow to me,|then my|sha- dows will|fly,|_ though you'll be|
"Gm" d2"Adim" e/ d c/- |"Fm7""Bb7" c4 |"Eb" z B"Ebdim" A"Eb" B |"Cm" c B A"Bbdim" G | %36
w: gone for a- while,|_|I know that|I'll be smil- ing|
"Bb/F" F2"C#dim7" =E2 |"Cm7" E c B"F+7" A |"Bb" B4- | B4 |] %40
w: with my|ba- by, by and|by.||

